web/assets/img/functions/520_6.svg

<svg id="vector" xmlns="http://www.w3.org/2000/svg" width="512" height="512" viewBox="0 0 512 512">
    <path fill="#000000"
          d="M385,149.5C342.27,149.5 296.33,122.36 251.91,96.11C209.81,71.23 166.27,45.5 129,45.5C98.26,45.5 71.48,52.82 49.41,67.25C32.94,78 25.37,89 25.29,89.09C23.76,91.14 21.5,92.53 18.97,92.96C16.45,93.39 13.86,92.84 11.73,91.42C9.6,90 8.09,87.82 7.53,85.32C6.96,82.82 7.37,80.2 8.68,78C10.11,75.81 44.62,25.5 129,25.5C171.73,25.5 217.67,52.64 262.09,78.89C304.19,103.77 347.73,129.5 385,129.5C415.74,129.5 442.52,122.18 464.59,107.75C481.06,97 488.63,86 488.71,85.91C490.19,83.72 492.48,82.21 495.08,81.7C497.67,81.2 500.36,81.74 502.56,83.21C504.76,84.69 506.28,86.97 506.8,89.56C507.31,92.15 506.78,94.85 505.32,97.05C503.89,99.19 469.38,149.5 385,149.5Z"
          id="path_0"/>
    <path fill="#00D151"
          d="M385,261.83C342.27,261.83 296.33,234.69 251.91,208.44C209.81,183.56 166.27,157.83 129,157.83C98.26,157.83 71.48,165.15 49.41,179.58C32.94,190.36 25.41,201.31 25.29,201.42C23.79,203.55 21.51,205.01 18.94,205.49C16.37,205.96 13.72,205.42 11.55,203.96C9.38,202.51 7.87,200.27 7.33,197.71C6.8,195.16 7.28,192.49 8.68,190.29C10.11,188.14 44.62,137.83 129,137.83C171.73,137.83 217.67,164.98 262.09,191.22C304.19,216.1 347.73,241.83 385,241.83C415.74,241.83 442.52,234.52 464.59,220.08C481.06,209.31 488.59,198.35 488.71,198.25C489.43,197.13 490.36,196.15 491.45,195.4C492.55,194.64 493.79,194.1 495.09,193.83C496.4,193.55 497.74,193.54 499.05,193.8C500.36,194.05 501.61,194.57 502.72,195.31C503.82,196.05 504.77,197.01 505.5,198.12C506.24,199.24 506.74,200.48 506.98,201.79C507.23,203.11 507.2,204.45 506.92,205.76C506.63,207.06 506.09,208.29 505.32,209.38C503.89,211.52 469.38,261.83 385,261.83Z"
          id="path_1"/>
    <path fill="#000000"
          d="M385,374.17C342.27,374.17 296.33,347.02 251.91,320.78C209.81,295.9 166.27,270.17 129,270.17C98.26,270.17 71.48,277.48 49.41,291.92C32.94,302.69 25.41,313.65 25.29,313.75C24.57,314.88 23.64,315.85 22.55,316.61C21.45,317.36 20.21,317.9 18.91,318.17C17.6,318.45 16.26,318.45 14.95,318.2C13.64,317.95 12.39,317.43 11.28,316.69C10.18,315.95 9.23,314.99 8.5,313.88C7.76,312.77 7.26,311.52 7.02,310.2C6.78,308.89 6.8,307.55 7.08,306.24C7.37,304.94 7.91,303.71 8.68,302.62C10.11,300.48 44.62,250.17 129,250.17C171.73,250.17 217.67,277.31 262.09,303.56C304.19,328.44 347.73,354.17 385,354.17C415.74,354.17 442.52,346.85 464.59,332.42C481.06,321.64 488.59,310.69 488.71,310.58C490.21,308.45 492.49,306.99 495.06,306.51C497.63,306.04 500.28,306.58 502.45,308.04C504.62,309.49 506.13,311.73 506.67,314.29C507.2,316.84 506.72,319.51 505.32,321.71C503.89,323.86 469.38,374.17 385,374.17Z"
          id="path_2"/>
    <path fill="#000000"
          d="M385,486.5C342.27,486.5 296.33,459.36 251.91,433.11C209.81,408.23 166.27,382.5 129,382.5C98.26,382.5 71.48,389.82 49.41,404.25C32.94,415 25.37,426 25.29,426.09C23.76,428.14 21.5,429.53 18.97,429.96C16.45,430.39 13.86,429.84 11.73,428.42C9.6,427 8.09,424.82 7.53,422.32C6.96,419.82 7.37,417.2 8.68,415C10.11,412.81 44.62,362.5 129,362.5C171.73,362.5 217.67,389.64 262.09,415.89C304.19,440.77 347.73,466.5 385,466.5C415.74,466.5 442.52,459.18 464.59,444.75C481.06,433.98 488.59,423.02 488.71,422.91C490.19,420.72 492.48,419.21 495.08,418.7C497.67,418.2 500.36,418.74 502.56,420.21C504.76,421.69 506.28,423.97 506.8,426.56C507.31,429.15 506.78,431.85 505.32,434.05C503.89,436.19 469.38,486.5 385,486.5Z"
          id="path_3"/>
</svg>

<?xml version="1.0" encoding="utf-8"?>
<!-- Generator: Adobe Illustrator 28.2.0, SVG Export Plug-In . SVG Version: 6.00 Build 0)  -->
<svg version="1.1" id="vector" xmlns="http://www.w3.org/2000/svg" xmlns:xlink="http://www.w3.org/1999/xlink" x="0px" y="0px"
	 viewBox="0 0 512 512" style="enable-background:new 0 0 512 512;" xml:space="preserve">
<style type="text/css">
	.st0{fill:#33B0DF;}
</style>
<path id="path_0" d="M385,149.5c-42.7,0-88.7-27.1-133.1-53.4C209.8,71.2,166.3,45.5,129,45.5c-30.7,0-57.5,7.3-79.6,21.8
	C32.9,78,25.4,89,25.3,89.1c-1.5,2.1-3.8,3.4-6.3,3.9c-2.5,0.4-5.1-0.1-7.2-1.5s-3.6-3.6-4.2-6.1C7,82.8,7.4,80.2,8.7,78
	c1.4-2.2,35.9-52.5,120.3-52.5c42.7,0,88.7,27.1,133.1,53.4c42.1,24.9,85.6,50.6,122.9,50.6c30.7,0,57.5-7.3,79.6-21.8
	c16.5-10.8,24-21.8,24.1-21.8c1.5-2.2,3.8-3.7,6.4-4.2c2.6-0.5,5.3,0,7.5,1.5c2.2,1.5,3.7,3.8,4.2,6.3c0.5,2.6,0,5.3-1.5,7.5
	C503.9,99.2,469.4,149.5,385,149.5z"/>
<path id="path_1" class="st0" d="M385,261.8c-42.7,0-88.7-27.1-133.1-53.4c-42.1-24.9-85.6-50.6-122.9-50.6
	c-30.7,0-57.5,7.3-79.6,21.8c-16.5,10.8-24,21.7-24.1,21.8c-1.5,2.1-3.8,3.6-6.4,4.1c-2.6,0.5-5.2-0.1-7.4-1.5
	c-2.2-1.5-3.7-3.7-4.2-6.2c-0.5-2.6,0-5.2,1.4-7.4c1.4-2.1,35.9-52.5,120.3-52.5c42.7,0,88.7,27.1,133.1,53.4
	c42.1,24.9,85.6,50.6,122.9,50.6c30.7,0,57.5-7.3,79.6-21.8c16.5-10.8,24-21.7,24.1-21.8c0.7-1.1,1.6-2.1,2.7-2.9
	c1.1-0.8,2.3-1.3,3.6-1.6c1.3-0.3,2.6-0.3,4,0c1.3,0.2,2.6,0.8,3.7,1.5c1.1,0.7,2,1.7,2.8,2.8c0.7,1.1,1.2,2.4,1.5,3.7
	c0.2,1.3,0.2,2.7-0.1,4c-0.3,1.3-0.8,2.5-1.6,3.6C503.9,211.5,469.4,261.8,385,261.8z"/>
<path id="path_2" d="M385,374.2c-42.7,0-88.7-27.2-133.1-53.4c-42.1-24.9-85.6-50.6-122.9-50.6c-30.7,0-57.5,7.3-79.6,21.8
	c-16.5,10.8-24,21.7-24.1,21.8c-0.7,1.1-1.7,2.1-2.7,2.9c-1.1,0.8-2.3,1.3-3.6,1.6c-1.3,0.3-2.6,0.3-4,0s-2.6-0.8-3.7-1.5
	c-1.1-0.7-2.1-1.7-2.8-2.8c-0.7-1.1-1.2-2.4-1.5-3.7c-0.2-1.3-0.2-2.7,0.1-4c0.3-1.3,0.8-2.5,1.6-3.6c1.4-2.1,35.9-52.4,120.3-52.4
	c42.7,0,88.7,27.1,133.1,53.4c42.1,24.9,85.6,50.6,122.9,50.6c30.7,0,57.5-7.3,79.6-21.8c16.5-10.8,24-21.7,24.1-21.8
	c1.5-2.1,3.8-3.6,6.4-4.1c2.6-0.5,5.2,0.1,7.4,1.5c2.2,1.4,3.7,3.7,4.2,6.2c0.5,2.5,0,5.2-1.4,7.4
	C503.9,323.9,469.4,374.2,385,374.2z"/>
<path id="path_3" d="M385,486.5c-42.7,0-88.7-27.1-133.1-53.4c-42.1-24.9-85.6-50.6-122.9-50.6c-30.7,0-57.5,7.3-79.6,21.8
	c-16.5,10.8-24,21.8-24.1,21.8c-1.5,2.1-3.8,3.4-6.3,3.9c-2.5,0.4-5.1-0.1-7.2-1.5c-2.1-1.4-3.6-3.6-4.2-6.1
	c-0.6-2.5-0.2-5.1,1.2-7.3c1.4-2.2,35.9-52.5,120.3-52.5c42.7,0,88.7,27.1,133.1,53.4c42.1,24.9,85.6,50.6,122.9,50.6
	c30.7,0,57.5-7.3,79.6-21.8c16.5-10.8,24-21.7,24.1-21.8c1.5-2.2,3.8-3.7,6.4-4.2c2.6-0.5,5.3,0,7.5,1.5c2.2,1.5,3.7,3.8,4.2,6.4
	c0.5,2.6,0,5.3-1.5,7.5C503.9,436.2,469.4,486.5,385,486.5z"/>
</svg>
